X: 20708
T: Johnny Boyle's
R: jig
M: 6/8
K: Gmajor
|:DEG BAG|B2d BAG|c2e dBG|cBc AGE|
DEG BAG|BdB BAB|def gdB|cAF G3:|
b3 g3|dgb bag|a3 f3|dfa afa|
b2b g2g|dgb bag|a2a f2f|dfa g3:|
e2e edB|edB gdB|edc BAG|cBc AGE|
DEG BAG|BdB BAB|def gdB|cAF G3|

